!!!!SEGMENT: pl-cz--iii-107--007_dankowski-adalbert--vesperae-es-magnificat.krn
!!!cenid: 18xx:767
!!!COM: Dankowski, Adalbert
!!!COM-rismID: pe30000793
!!!CDT: ~1760-~1836
!!!CNT: Polish
!!!OPR: Vesperae Es
!!!OTL: Magnificat
!!!OMV: 007
!!!PDT: 1825
!!!AGN: Sacred; Vespers
!!!SMS-siglum: PL-CZ
!!!SMS-shelfmark: III-107
!!!SMS-shelfwork: 001-007 M
!!!SMS-variant:
!!!SMS-altvar:
!!!NIFC-rismSourceID: 300000115
!!!NIFC-rismChildID: 300000115
!!!NIFC-islandoraID: pl-cz:34263
!!!URL-pdf-islandora: https://repozytorium.nifc.pl/islandora/object/pl-cz%3A34263/datastream/PDF/view
!!!URL-scan:
!!!ONB-nifc: UWAGA: części Vesperae: Dixit Dominus, Tecum principium, Iudicabit, De torrente, Gloria patri, Sicut erat, Magnificat, Et exsultavit, Quia fecit, Deposuit potentes, Gloria patri, Sicut erat
!!!OMD: Adagio.
!!!AIN: 1 alto 6 empty 1 organ 1 soprn 1 tenor 1 violn
!!!key:
**kern	**fba	**dynam	**kern	**dynam	**kern	**kern	**text	**kern	**text	**kern	**text	**kern	**text	**kern	**kern	**kern	**kern
*part11	*part11	*part11	*part10	*part10	*part9	*part8	*part8	*part7	*part7	*part6	*part6	*part5	*part5	*part4	*part3	*part2	*part1
*staff11	*	*	*staff10	*	*staff9	*staff8	*staff8	*staff7	*staff7	*staff6	*staff6	*staff5	*staff5	*staff4	*staff3	*staff2	*staff1
*Iorgan	*	*	*Ivioln	*	*Iempty	*Iempty	*	*Itenor	*	*Ialto	*	*Isoprn	*	*Iempty	*Iempty	*Iempty	*Iempty
*I"Organo.	*	*	*I"Violino Secondo.	*	*I"Violino .. Primo	*I"Baſso	*	*I"Tenore	*	*I"Alto.	*	*I"Soprano.	*	*I"Corno Secondo. in Dis Obligato.	*I"Corno Prymo Obligato in Dis	*I"Clarinetto Secundo in Dis	*I"Clarinetto. Primo. in Dis.
*I'Organo.	*	*	*I'Violino Secondo.	*	*I'Violino .. Primo	*I'Baſso	*	*I'T.	*	*I'Alto.	*	*I'Soprano.	*	*I'Corno Secondo. in Dis Obligato.	*I'Corno Prymo Obligato in Dis	*I'Clarinetto Secundo in Dis	*I'Clarinetto. Primo. in Dis.
*clefF4	*	*	*clefG2	*	*clefG2	*clefF4	*	*clefC4	*	*clefC3	*	*clefC1	*	*clefG2	*clefG2	*clefG2	*clefG2
*	*	*	*	*	*	*	*	*	*	*	*	*	*	*ITrd5c9	*ITrd5c9	*ITrd1c2	*ITrd1c2
*k[b-e-a-]	*	*	*k[b-e-a-]	*	*k[b-e-a-]	*k[e-b-a-]	*	*k[b-e-a-]	*	*k[b-e-a-]	*	*k[b-e-a-]	*	*k[b-e-a-]	*k[b-e-a-]	*k[b-e-a-]	*k[b-e-a-]
*E-:	*	*	*E-:	*	*E-:	*E-:	*	*E-:	*	*E-:	*	*E-:	*	*E-:	*E-:	*E-:	*E-:
*M4/4	*	*	*M4/4	*	*M4/4	*M4/4	*	*M4/4	*	*M4/4	*	*M4/4	*	*M4/4	*M4/4	*M4/4	*M4/4
*met(c)	*	*	*met(c)	*	*met(c)	*met(c)	*	*met(c)	*	*met(c)	*	*met(c)	*	*met(c)	*met(c)	*met(c)	*met(c)
*	*	*	*	*below	*	*	*	*	*	*	*	*	*	*	*	*	*
!	!	!	!	!	!	!LO:SIC:o:s:v=kolejność znaków E- BB- AA-	!	!LO:SIC:o:s:v=znaki błędnie zapisane c- E- B-, kolejność B- E- A-	!	!	!	!	!	!	!	!	!
!	!	!	!LO:SIC:o:s:v=Adgio.	!	!	!	!	!LO:TX:b:t=Magnificat	!	!LO:TX:a:t=Magnificat,	!	!	!	!	!	!	!LO:TX:a:t=Magnificat
!	!	!LO:DY:t=p&colon;	!LO:TX:rj:b:t=Magnificat.	!	!LO:TX:b:t=Magnificat	!LO:TX:b:t=Magnificat	!	!	!	!	!	!	!	!LO:TX:a:t=Magnificat	!LO:TX:a:t=MagniFicat	!LO:TX:a:t=Magnificat	!
8r	.	p	8r	.	8b-\	8r	.	8r	.	8r	.	8r	.	8r	8r	8r	8r
=1	=1	=1	=1	=1	=1	=1	=1	=1	=1	=1	=1	=1	=1	=1	=1	=1	=1
!	!	!	!	!LO:DY:t=p.	!	!LO:TX:a:t=3	!	!LO:TX:a:t=3.	!	!LO:TX:a:t=3.	!	!	!	!LO:TX:a:t=3.	!LO:TX:a:t=3	!LO:TX:a:t=3.	!LO:TX:a:t=3.
16r	.	.	16r	p	(16ee-\LL	0r	.	0r	.	0r	.	1r	.	0r	0r	0r	0r
16E-\LL	.	.	16e-/LL 16G/	.	16b-\J)	.	.	.	.	.	.	.	.	.	.	.	.
!	!	!	!	!	!LO:TX:t=|	!	!	!	!	!	!	!	!	!	!	!	!
16E-\	.	.	16e-/ 16G/	.	8b-\J	.	.	.	.	.	.	.	.	.	.	.	.
16E-\JJ	.	.	16e-/JJ 16G/	.	.	.	.	.	.	.	.	.	.	.	.	.	.
8E-\	.	.	8g/	.	16r	.	.	.	.	.	.	.	.	.	.	.	.
.	.	.	.	.	(16ee-\LL	.	.	.	.	.	.	.	.	.	.	.	.
8r	.	.	8r	.	16ff\	.	.	.	.	.	.	.	.	.	.	.	.
.	.	.	.	.	16gg\JJ)	.	.	.	.	.	.	.	.	.	.	.	.
16r	.	.	16r	.	(16ff\LL	.	.	.	.	.	.	.	.	.	.	.	.
16D\LL	6	.	16f/LL	.	16b-\J)	.	.	.	.	.	.	.	.	.	.	.	.
!	!	!	!	!	!LO:TX:t=|	!	!	!	!	!	!	!	!	!	!	!	!
16D\	.	.	16f/	.	8b-\J	.	.	.	.	.	.	.	.	.	.	.	.
16D\JJ	.	.	16f/JJ	.	.	.	.	.	.	.	.	.	.	.	.	.	.
8D\	.	.	8f/	.	16r	.	.	.	.	.	.	.	.	.	.	.	.
.	.	.	.	.	(16ff\LL	.	.	.	.	.	.	.	.	.	.	.	.
8r	.	.	8r	.	16gg\	.	.	.	.	.	.	.	.	.	.	.	.
.	.	.	.	.	16aa-\JJ)	.	.	.	.	.	.	.	.	.	.	.	.
!LO:LB:g=original	!	!	!	!	!	!	!	!	!	!	!	!	!	!	!	!	!
=2	=2	=2	=2	=2	=2	=2	=2	=2	=2	=2	=2	=2	=2	=2	=2	=2	=2
!LO:TX:t=P:problem=mixed beam	!	!	!	!	!	!	!	!	!	!	!	!	!	!	!	!	!
8D\L	.	.	8g/L	.	(16gg\LL	.	.	.	.	.	.	2r	.	.	.	.	.
.	.	.	.	.	16ee-\)	.	.	.	.	.	.	.	.	.	.	.	.
8A-\	.	.	(16cc/L	.	(16aa-\	.	.	.	.	.	.	.	.	.	.	.	.
.	.	.	16a-/JJ)	.	16ff\JJ)	.	.	.	.	.	.	.	.	.	.	.	.
8B-\	.	.	(16a-/LL	.	(16ff\LL	.	.	.	.	.	.	.	.	.	.	.	.
.	.	.	16g/)	.	16ee-\)	.	.	.	.	.	.	.	.	.	.	.	.
8BB-/J	.	.	(16g/	.	(16ee-\	.	.	.	.	.	.	.	.	.	.	.	.
.	.	.	16f/JJ)	.	16dd\JJ)	.	.	.	.	.	.	.	.	.	.	.	.
!	!	!	!	!	!LO:LB:g=original	!	!	!	!	!	!	!	!	!	!	!	!
!LO:TX:t=P:problem=mixed beam	!	!	!	!	!LO:TX:t=P:problem=mixed beam	!	!	!	!	!	!	!	!	!	!	!	!
8E-\L	.	.	8g/L	.	8ee-\L	.	.	.	.	.	.	4r	.	.	.	.	.
8EE-/	.	.	8B-/	.	8g/J	.	.	.	.	.	.	.	.	.	.	.	.
8EE-/J	.	.	8B-/J	.	8g/	.	.	.	.	.	.	8r	.	.	.	.	.
8r	.	.	8r	.	8r	.	.	.	.	.	.	8b-\	Ma-	.	.	.	.
!	!	!	!LO:LB:g=original	!	!	!	!	!	!	!	!	!	!	!	!	!	!
=3	=3	=3	=3	=3	=3	=3	=3	=3	=3	=3	=3	=3	=3	=3	=3	=3	=3
!!pagebreak:original
!	!	!	!	!	!LO:N:vis=8	!	!	!	!	!	!	!	!	!	!	!	!
1r	.	.	16r	.	16r	1r	.	1r	.	1r	.	16ee-\	-gni-	1r	1r	1r	1r
.	.	.	16e-'/LL	.	16g/LL	.	.	.	.	.	.	16b-\	-fi-	.	.	.	.
.	.	.	16e-'/	.	16g/	.	.	.	.	.	.	8b-\	-cat	.	.	.	.
.	.	.	16e-'/JJ	.	16g/JJ	.	.	.	.	.	.	.	.	.	.	.	.
.	.	.	8e-/	.	8g/	.	.	.	.	.	.	16r	.	.	.	.	.
*	*	*	*	*	*	*	*	*	*	*	*	*	*ij	*	*	*	*
.	.	.	.	.	.	.	.	.	.	.	.	16ee-\LL	Ma-	.	.	.	.
.	.	.	8r	.	8r	.	.	.	.	.	.	16ff\	.	.	.	.	.
.	.	.	.	.	.	.	.	.	.	.	.	16gg\JJ	.	.	.	.	.
.	.	.	16r	.	16r	.	.	.	.	.	.	16ff\	-gni-	.	.	.	.
.	.	.	16d/LL	.	16f/LL	.	.	.	.	.	.	16b-\	-fi-	.	.	.	.
.	.	.	16d/	.	16f/	.	.	.	.	.	.	8b-\	-cat	.	.	.	.
.	.	.	16d/JJ	.	16f/JJ	.	.	.	.	.	.	.	.	.	.	.	.
*	*	*	*	*	*	*	*	*	*	*	*	*	*Xij	*	*	*	*
!	!	!	!	!	!	!	!	!	!	!	!	!LO:N:vis=8	!	!	!	!	!
.	.	.	8d/	.	4f/	.	.	.	.	.	.	16r	.	.	.	.	.
.	.	.	.	.	.	.	.	.	.	.	.	16ff\LL	a-	.	.	.	.
.	.	.	8r	.	.	.	.	.	.	.	.	16gg\	.	.	.	.	.
.	.	.	.	.	.	.	.	.	.	.	.	16aa-\JJ	.	.	.	.	.
!	!	!	!	!	!	!	!	!	!	!	!	!LO:LB:g=original	!	!	!	!	!
=4	=4	=4	=4	=4	=4	=4	=4	=4	=4	=4	=4	=4	=4	=4	=4	=4	=4
2r	.	.	8e-/L	.	8g/L	2r	.	2r	.	2r	.	16gg\LL	-ni-	2r	2r	2r	2r
.	.	.	.	.	.	.	.	.	.	.	.	16bb-\JJ	.	.	.	.	.
.	.	.	8e-/	.	8g/	.	.	.	.	.	.	16ee-\LL	-ma	.	.	.	.
.	.	.	.	.	.	.	.	.	.	.	.	16gg\JJ	.	.	.	.	.
.	.	.	8A-/	.	8a-/	.	.	.	.	.	.	16gg\LL	me-	.	.	.	.
.	.	.	.	.	.	.	.	.	.	.	.	16ff\	.	.	.	.	.
.	.	.	8An/J	.	8an/J	.	.	.	.	.	.	16ff\	-a	.	.	.	.
.	.	.	.	.	.	.	.	.	.	.	.	16ee-\JJ	.	.	.	.	.
!LO:TX:a:t=Tutti	!	!	!	!LO:DY:a:t=for.	!LO:TX:t=P:problem=mixed beam	!	!	!	!	!	!	!	!	!	!	!	!
4r	.	.	8B-/L	f	8b-\L	4r	.	4r	.	4r	.	16ee-,\	Do-	4r	4r	4r	4r
.	.	.	.	.	.	.	.	.	.	.	.	16ee-\	-mi-	.	.	.	.
.	.	.	8B-/J	.	8B-/J	.	.	.	.	.	.	8dd\	-nun	.	.	.	.
8r	.	.	16b-'\LL	.	16b-\LL	8r	.	8r	.	8r	.	8r	.	8r	8r	8r	8r
.	.	.	16dd'\	.	16dd\	.	.	.	.	.	.	.	.	.	.	.	.
*	*	*	*	*	*	*8\right	*	*	*	*	*	*	*	*	*all\right	*all\right	*
8D\	6	.	16ff'\	.	16ff\	8E-\	Ma-	8d\	Ma-	8b-\	Ma-	8ff\	ma-	8B-/	8f\	8dd\	8ff\
.	.	.	16aa-'\JJ	.	16aa-\JJ	.	.	.	.	.	.	.	.	.	.	.	.
!	!	!	!	!	!	!	!	!	!	!	!	!	!	!LO:LB:g=original	!	!	!
=5	=5	=5	=5	=5	=5	=5	=5	=5	=5	=5	=5	=5	=5	=5	=5	=5	=5
!!pagebreak:original
!LO:TX:t=P:problem=mixed beam	!	!	!	!	!	!	!	!	!	!	!	!	!	!	!	!	!
8E-\L	.	.	(16aa-\LL	.	(16aa-\LL	8E-\	-gni-	8e-\	-gni-	8b-\	-gni-	8gg\	-gni-	4e-\	4g\	4ee-\	4gg\
.	.	.	16gg\)	.	16gg\)	.	.	.	.	.	.	.	.	.	.	.	.
8G\	.	.	16bb-'\	.	(16bb-\	8G\	-fi-	8e-\	-fi-	8b-\	-fi-	8ee-\	-fi-	.	.	.	.
.	.	.	16ee-'\JJ	.	16ee-\JJ)	.	.	.	.	.	.	.	.	.	.	.	.
8B-\	.	.	(16ee-\LL	.	(16ee-\LL	8B-\	-cat	8d\	-cat	8b-\	-cat	8dd\	-cat	4B-/	4f\	8dd\L	8ff\L
.	.	.	16dd\)	.	16dd\)	.	.	.	.	.	.	.	.	.	.	.	.
*	*	*	*	*	*	*	*ij	*	*	*	*	*	*ij	*	*	*	*
8BB-/J	.	.	16ff'\	.	(16ff\	8BB-/	Ma-	8d\	.	8b-\	Ma-	8ff\	ma-	.	.	8ff\J	8aa-\J
.	.	.	16aa-'\JJ	.	16aa-\JJ)	.	.	.	.	.	.	.	.	.	.	.	.
!	!	!	!	!	!LO:LB:g=original	!	!	!	!	!LO:LB:g=original	!	!	!	!	!	!	!
!LO:TX:t=P:problem=mixed beam	!	!	!	!	!	!	!	!	!	!	!	!	!	!	!	!	!
8E-\L	6	.	16aa-\LL	.	(16aa-\LL	8E-\	-gni-	8e-\	.	8b-\	-gni-	8gg\	-gni-	4e-\	4g\	4ee-\	4gg\
.	.	.	16gg\	.	16gg\)	.	.	.	.	.	.	.	.	.	.	.	.
8G\	.	.	16bb-\	.	(16bb-\	8G\	-fi-	8e-\	a-	8b-\	-fi-	8ee-\	-fi-	.	.	.	.
.	.	.	16ee-\JJ	.	16ee-\JJ)	.	.	.	.	.	.	.	.	.	.	.	.
8B-\	.	.	(16ee-\LL	.	(16ee-\LL	8B-\	-cat	8d\	-ni-	8b-\	-cat	8dd\	-cat	4B-/	4f\	8dd\L	8ff\L
.	.	.	16dd\)	.	16dd\)	.	.	.	.	.	.	.	.	.	.	.	.
*	*	*	*	*	*	*	*Xij	*	*	*	*	*	*Xij	*	*	*	*
8BB-/J	.	.	16ff'\	.	(16ff\	8BB-/	a-	8d\	-ma	8b-\	a-	8ff\	a-	.	.	8ff\J	8aa-\J
.	.	.	16aa-'\JJ	.	16aa-\JJ)	.	.	.	.	.	.	.	.	.	.	.	.
!	!	!	!LO:LB:g=original	!	!	!LO:LB:g=original	!	!	!	!	!	!	!	!	!	!	!
=6	=6	=6	=6	=6	=6	=6	=6	=6	=6	=6	=6	=6	=6	=6	=6	=6	=6
8E-\L	.	.	16gg\LL	.	16gg\LL	8E-\	-ni-	8e-\	me-	8b-\	-ni-	8gg\	-ni-	4e-\	4g\	4ee-\	4gg\
.	.	.	16bb-\	.	16bb-\	.	.	.	.	.	.	.	.	.	.	.	.
8E-\	.	.	16gg\	.	16gg\	8E-\	-ma	8e-\	-a	8b-\	-ma	8gg\	-ma	.	.	.	.
.	.	.	16bb-\JJ	.	16bb-\JJ	.	.	.	.	.	.	.	.	.	.	.	.
8D\	6	.	16ff\LL	.	16ff\LL	8D\	me-	8f\	a-	8b-\	me-	8ff\	me-	4B-/	4b-\	4ff\	4bb-\
.	.	.	16bb-\	.	16bb-\	.	.	.	.	.	.	.	.	.	.	.	.
8D\J	.	.	16ff\	.	16ff\	8D\	-a	8f\	-ni-	8b-\	-a	8ff\	-a	.	.	.	.
.	.	.	16bb-\JJ	.	16bb-\JJ	.	.	.	.	.	.	.	.	.	.	.	.
*tremolo	*	*	*tremolo	*	*tremlo	*	*	*	*	*	*	*	*	*	*	*	*
*	*	*	*	*	*	*	*	*	*	*	*	*	*	*	*	*2\right	*
8C/L	.	.	16ee-\LL	.	16bb-\LL	4C/	Do-	4g\	-ma	4b-\	Do-	4.ee-\	Do-	4g\	4b-\	2ee-\	4bb-\
.	.	.	16ee-\	.	16bb-\	.	.	.	.	.	.	.	.	.	.	.	.
8C/	.	.	16ee-\	.	16bb-\	.	.	.	.	.	.	.	.	.	.	.	.
.	.	.	16ee-\JJ	.	16bb-\JJ	.	.	.	.	.	.	.	.	.	.	.	.
8C/	.	.	16ee-\LL	.	16aan\LL	4C/	-mi-	4f\	me-	4an\	-mi-	.	.	4f\	4aX\	.	4aa\
.	.	.	16ee-\	.	16aan\	.	.	.	.	.	.	.	.	.	.	.	.
8C/J	.	.	16ee-\	.	16aan\	.	.	.	.	.	.	8ee-\	-mi-	.	.	.	.
.	.	.	16ee-\JJ	.	16aan\JJ	.	.	.	.	.	.	.	.	.	.	.	.
*Xtremolo	*	*	*Xtremolo	*	*Xtremolo	*	*	*	*	*	*	*	*	*	*	*	*
!	!	!	!	!	!	!	!	!LO:LB:g=original	!	!	!	!LO:LB:g=original	!	!	!	!	!
=7	=7	=7	=7	=7	=7	=7	=7	=7	=7	=7	=7	=7	=7	=7	=7	=7	=7
4BB-/	.	.	4dd\	.	4bb-\	4BB-/	-num	4f\	-a	4b-\	-num.	4dd\	-num	4B-/	4b-\	4dd\	4bb-\
4r	.	.	4r	.	4r	4r	.	4r	.	4r	.	4r	.	4r	4r	4r	4r
2r	.	.	2r	.	2r	2r	.	2r	.	2r	.	2r	.	2r	2r	2r	2r
==	==	==	==	==	==	==	==	==	==	==	==	==	==	==	==	==	==
*-	*-	*-	*-	*-	*-	*-	*-	*-	*-	*-	*-	*-	*-	*-	*-	*-	*-
!!!system-decoration: [(s1,s2)][(s3,s4)][(s5,s6,s7,s8)][(s9,s10)][(s11)]
!!!ENC: Marcin Jachim
!!!END: 2020-07-08
!!!ENC: Leszek Kubiak
!!!END: 2021-11-22
!!!YEC: Copyright 2022 Narodowy Instytut Fryderyka Chopina (https://polishscores.org)
!!!YEM: License CC-BY-4.0 (https://creativecommons.org/licenses/by/4.0)
